X: 32044
T: Peggy's
R: jig
M: 6/8
K: Gmajor
|:BAB GBd|cBc E2G|FED cAF|GFG D2c|
BAB GBd|cBc E2G|FED cAF|GAG G3:|
|:dBd def|gfg d2g|fef A2c|Bdd GBc|
dBd def|gfg d2g|fed cAF|GAG G3:|
BdB GBd|cBA E2G|FEF DFA|GBG D2c|
BdB GBd|cBA E2G|FEF AGF|G3 G3:|
ded def|gfg b2g|fef A2B|c3 B2c|
ded def|gfg b2g|fed cAF|G3 G3:|

